X: 37854
T: Sore Foot, The
R: reel
M: 4/4
K: Adorian
|EG|AcBG AEE2|GABG A2EG|AcBA GEDE|GEDE G2EG|
AcBG AEE2|AcBG A2EG|AcBA GEDE|GEDE G2||
Bd|e2dg eAA2|e2dB GABd|e2de gedB|cABG AGEd|
e2dg eAA2|e2dB GABd|e2de gedB|cABG AG||

